X: 33
T:Dusty Miller. JWDM.32
M:12/8
L:1/8
Q:120
S:J.Winder MS,Wyresdale,Lancs.,1789
R:Jig
O:England
A:Lancashire
Z:vmp.Taz Tarry  C.G.P.
K:G
B>cdB AG|FAAc BA|B>cdB AG|DGGBAG:||!:Bcdefg|aAAcBA|"*"Bcdefg|BGGBAG:||
%Bar 7 reconstructed from missing corner in MS.
